src/vs/workbench/parts/files/browser/media/AddRepo_inverse.svg

<?xml version="1.0" encoding="UTF-8" standalone="no"?>
<!-- Generator: Adobe Illustrator 21.1.0, SVG Export Plug-In . SVG Version: 6.00 Build 0)  -->

<svg
   xmlns:dc="http://purl.org/dc/elements/1.1/"
   xmlns:cc="http://creativecommons.org/ns#"
   xmlns:rdf="http://www.w3.org/1999/02/22-rdf-syntax-ns#"
   xmlns:svg="http://www.w3.org/2000/svg"
   xmlns="http://www.w3.org/2000/svg"
   xmlns:sodipodi="http://sodipodi.sourceforge.net/DTD/sodipodi-0.dtd"
   xmlns:inkscape="http://www.inkscape.org/namespaces/inkscape"
   version="1.1"
   id="Layer_1"
   x="0px"
   y="0px"
   viewBox="0 0 16 16"
   style="enable-background:new 0 0 16 16;"
   xml:space="preserve"
   inkscape:version="0.92.2 (unknown)"
   sodipodi:docname="AddRepo_inverse.svg"><metadata
     id="metadata4430"><rdf:RDF><cc:Work
         rdf:about=""><dc:format>image/svg+xml</dc:format><dc:type
           rdf:resource="http://purl.org/dc/dcmitype/StillImage" /><dc:title>repo</dc:title></cc:Work></rdf:RDF></metadata><defs
     id="defs4428"><clipPath
       clipPathUnits="userSpaceOnUse"
       id="clipPath893"><path
         style="opacity:1;fill:#000000;fill-opacity:1;stroke-width:2.66358232"
         d="M 4.9274626,-0.07719686 V 7.471037 H 0.85434975 v 8.67652 H 14.150073 V -0.07719686 Z"
         id="path895"
         inkscape:connector-curvature="0" /></clipPath></defs><sodipodi:namedview
     pagecolor="#ffffff"
     bordercolor="#666666"
     borderopacity="1"
     objecttolerance="10"
     gridtolerance="10"
     guidetolerance="10"
     inkscape:pageopacity="0"
     inkscape:pageshadow="2"
     inkscape:window-width="3838"
     inkscape:window-height="2131"
     id="namedview4426"
     showgrid="false"
     inkscape:zoom="118"
     inkscape:cx="4.405791"
     inkscape:cy="8.9978148"
     inkscape:window-x="0"
     inkscape:window-y="27"
     inkscape:window-maximized="1"
     inkscape:current-layer="Layer_1" /><style
     type="text/css"
     id="style4416">
	.st0{fill:#C5C5C5;}
	.st1{display:none;fill:#C5C5C5;}
</style><title
     id="title4418">repo</title><desc
     id="desc4420">Created with Sketch.</desc><g
     id="Octicons"
     transform="matrix(0.86552738,0,0,0.86552738,2.8113181,1.066816)"
     clip-path="url(#clipPath893)"><g
       id="repo"><path
         id="Shape"
         class="st0"
         d="m 6.1,9 -1,0 0,-1 1,0 0,1 0,0 z m 0,-3 -1,0 0,1 1,0 0,-1 0,0 z m 0,-2.1 -1,0 0,1 1,0 0,-1 0,0 z m 0,-1.9 -1,0 0,1 1,0 0,-1 0,0 z m 8,-1 0,12 c 0,0.5 -0.5,1 -1,1 l -5,0 0,2 L 6.6,14.5 5.1,16 5.1,14 3,14 C 2.5,14 2,13.5 2,13 L 2,1 C 2,0.5 2.5,0 3,0 l 10,0 c 0.6,0 1.1,0.5 1.1,1 l 0,0 z m -1,10 -10.1,0 0,2 2,0 0,-1 3.1,0 0,1 5,0 0,-2 0,0 z m 0,-10 -9,0 0,9 9,0 0,-9 0,0 z"
         inkscape:connector-curvature="0"
         style="fill:#c5c5c5" /></g></g><path
     id="iconBg"
     class="st1"
     d="M13.6,0.8H6.1l-1,2H1.6C1.4,2.8,1.1,3,1.1,3.3v3.3c0.7-0.5,1.6-0.8,2.5-0.8c2.5,0,4.5,2,4.5,4.5  c0,0.5-0.1,1-0.3,1.5h5.8c0.3,0,0.5-0.2,0.5-0.5v-10C14.1,1,13.9,0.8,13.6,0.8z M13.1,2.8H6.6l0.5-1h6V2.8z M3.6,6.8  c-1.9,0-3.5,1.6-3.5,3.5s1.6,3.5,3.5,3.5s3.5-1.6,3.5-3.5S5.6,6.8,3.6,6.8z M6.1,10.3c0,1.4-1.1,2.5-2.5,2.5s-2.5-1.1-2.5-2.5  s1.1-2.5,2.5-2.5S6.1,8.9,6.1,10.3z M5.1,10.3c0,0.8-0.7,1.5-1.5,1.5s-1.5-0.7-1.5-1.5s0.7-1.5,1.5-1.5S5.1,9.5,5.1,10.3z" /><polygon
     transform="translate(-0.39830512,-0.48305096)"
     style="fill:#89d185"
     points="5,5 7,5 7,3.018 5,3.018 5,1 3.019,1 3.019,3.018 1,3.018 1,5 3.019,5 3.019,7 5,7 "
     id="polygon4407" /></svg>

<?xml version="1.0" encoding="utf-8"?>
<!-- Generator: Adobe Illustrator 21.1.0, SVG Export Plug-In . SVG Version: 6.00 Build 0)  -->
<svg version="1.1" id="Layer_1" xmlns="http://www.w3.org/2000/svg" xmlns:xlink="http://www.w3.org/1999/xlink" x="0px" y="0px"
	 viewBox="0 0 16 16" style="enable-background:new 0 0 16 16;" xml:space="preserve">
<style type="text/css">
	.st0{fill:#C5C5C5;}
	.st1{display:none;fill:#C5C5C5;}
</style>
<title>repo</title>
<desc>Created with Sketch.</desc>
<g id="Octicons">
	<g id="repo">
		<path id="Shape" class="st0" d="M6.1,9h-1V8h1V9L6.1,9z M6.1,6h-1v1h1V6L6.1,6z M6.1,3.9h-1v1h1V3.9L6.1,3.9z M6.1,2h-1v1h1V2
			L6.1,2z M14.1,1V13c0,0.5-0.5,1-1,1h-5v2l-1.5-1.5L5.1,16v-2H3c-0.5,0-1-0.5-1-1V1c0-0.5,0.5-1,1-1h10C13.6,0,14.1,0.5,14.1,1
			L14.1,1z M13.1,11H3v2h2v-1h3.1v1h5V11L13.1,11z M13.1,1h-9v9h9V1L13.1,1z"/>
	</g>
</g>
<path id="iconBg" class="st1" d="M13.6,0.8H6.1l-1,2H1.6C1.4,2.8,1.1,3,1.1,3.3v3.3c0.7-0.5,1.6-0.8,2.5-0.8c2.5,0,4.5,2,4.5,4.5
	c0,0.5-0.1,1-0.3,1.5h5.8c0.3,0,0.5-0.2,0.5-0.5v-10C14.1,1,13.9,0.8,13.6,0.8z M13.1,2.8H6.6l0.5-1h6V2.8z M3.6,6.8
	c-1.9,0-3.5,1.6-3.5,3.5s1.6,3.5,3.5,3.5s3.5-1.6,3.5-3.5S5.6,6.8,3.6,6.8z M6.1,10.3c0,1.4-1.1,2.5-2.5,2.5s-2.5-1.1-2.5-2.5
	s1.1-2.5,2.5-2.5S6.1,8.9,6.1,10.3z M5.1,10.3c0,0.8-0.7,1.5-1.5,1.5s-1.5-0.7-1.5-1.5s0.7-1.5,1.5-1.5S5.1,9.5,5.1,10.3z"/>
</svg>
